public/Animation.svg

<svg width="3157" height="1474" viewBox="0 0 3157 1474" fill="none" xmlns="http://www.w3.org/2000/svg">
<path d="M2050.31 730.323C2050.33 730.534 2050.34 730.715 2050.35 730.864L1661.41 730.864L1661.41 356.024C1845.03 356.194 1942.24 449.938 1993.58 543.684C2019.28 590.611 2033.48 637.543 2041.26 672.747C2045.15 690.348 2047.43 705.014 2048.74 715.278C2049.4 720.41 2049.81 724.441 2050.06 727.188C2050.18 728.562 2050.26 729.614 2050.31 730.323Z" fill="#BFB5B6" fill-opacity="0.8" stroke="black"/>
<path d="M1661.41 731.864L2050.35 731.864C2050.34 732.014 2050.33 732.195 2050.31 732.406C2050.26 733.114 2050.18 734.167 2050.06 735.54C2049.81 738.287 2049.4 742.318 2048.74 747.45C2047.43 757.714 2045.15 772.381 2041.26 789.981C2033.48 825.185 2019.28 872.117 1993.58 919.044C1942.24 1012.79 1845.03 1106.53 1661.41 1106.7L1661.41 731.864Z" fill="#BFB5B6" fill-opacity="0.8" stroke="black"/>
<path d="M2260.82 731.86C2260.77 731.274 2260.73 730.818 2260.71 730.501L2429.12 730.501L2429.12 898.835C2349.66 898.659 2307.58 856.555 2285.33 814.435C2274.18 793.321 2268.01 772.2 2264.64 756.356C2262.95 748.434 2261.96 741.834 2261.39 737.216C2261.1 734.907 2260.92 733.094 2260.82 731.86Z" fill="#BFB5B6" fill-opacity="0.8" stroke="black"/>
<path d="M2427.76 561.516C2428.35 561.465 2428.8 561.43 2429.12 561.407L2429.12 729.708L2260.67 729.708C2260.85 650.298 2302.98 608.245 2345.13 586.013C2366.26 574.869 2387.39 568.707 2403.25 565.332C2411.17 563.645 2417.78 562.655 2422.4 562.086C2424.71 561.802 2426.52 561.623 2427.76 561.516Z" fill="#BFB5B6" fill-opacity="0.8" stroke="black"/>
<path d="M2431.48 900.056C2430.89 900.107 2430.44 900.142 2430.12 900.165L2430.12 731.864L2598.57 731.864C2598.39 811.274 2556.26 853.327 2514.11 875.559C2492.98 886.703 2471.85 892.865 2455.99 896.24C2448.07 897.927 2441.46 898.917 2436.84 899.486C2434.53 899.77 2432.72 899.949 2431.48 900.056Z" fill="#BFB5B6" fill-opacity="0.8" stroke="black"/>
<path d="M3156.36 1080.57C3156.41 1081.15 3156.44 1081.61 3156.47 1081.92L2988.05 1081.92L2988.05 913.59C3067.52 913.766 3109.6 955.87 3131.84 997.99C3143 1019.1 3149.16 1040.22 3152.54 1056.07C3154.23 1063.99 3155.22 1070.59 3155.79 1075.21C3156.07 1077.52 3156.25 1079.33 3156.36 1080.57Z" fill="#BFB5B6" fill-opacity="0.8" stroke="black"/>
<path d="M2985.69 913.732C2986.28 913.681 2986.74 913.646 2987.05 913.623L2987.05 1081.92L2818.61 1081.92C2818.78 1002.49 2860.92 960.44 2903.06 938.214C2924.19 927.072 2945.33 920.914 2961.18 917.542C2969.11 915.857 2975.71 914.868 2980.33 914.301C2982.64 914.017 2984.46 913.839 2985.69 913.732Z" fill="#BFB5B6" fill-opacity="0.8" stroke="black"/>
<path d="M2818.75 1084.28C2818.7 1083.7 2818.66 1083.24 2818.64 1082.92L2987.05 1082.92L2987.05 1251.26C2907.59 1251.08 2865.51 1208.98 2843.26 1166.86C2832.11 1145.74 2825.95 1124.62 2822.57 1108.78C2820.88 1100.86 2819.89 1094.26 2819.32 1089.64C2819.04 1087.33 2818.86 1085.52 2818.75 1084.28Z" fill="#BFB5B6" fill-opacity="0.8" stroke="black"/>
<path d="M2524.1 1081.4C2524.11 1081.6 2524.13 1081.78 2524.14 1081.92L2430.12 1081.92L2430.12 987.932C2474.45 988.108 2497.94 1011.63 2510.37 1035.16C2516.61 1046.98 2520.07 1058.81 2521.96 1067.69C2522.9 1072.12 2523.46 1075.82 2523.78 1078.4C2523.94 1079.7 2524.04 1080.71 2524.1 1081.4Z" fill="#BFB5B6" fill-opacity="0.8" stroke="black"/>
<path d="M2335.14 1083.45C2335.13 1083.24 2335.11 1083.07 2335.1 1082.92L2429.12 1082.92L2429.12 1176.92C2384.79 1176.74 2361.3 1153.22 2348.87 1129.69C2342.63 1117.86 2339.17 1106.04 2337.28 1097.16C2336.34 1092.73 2335.78 1089.03 2335.46 1086.44C2335.3 1085.15 2335.2 1084.14 2335.14 1083.45Z" fill="#BFB5B6" fill-opacity="0.8" stroke="black"/>
<path d="M2430.64 1176.84C2430.44 1176.85 2430.27 1176.87 2430.12 1176.88L2430.12 1082.92L2524.17 1082.92C2524 1127.23 2500.46 1150.7 2476.91 1163.12C2465.08 1169.36 2453.25 1172.81 2444.37 1174.7C2439.93 1175.64 2436.23 1176.2 2433.64 1176.52C2432.35 1176.68 2431.33 1176.78 2430.64 1176.84Z" fill="#BFB5B6" fill-opacity="0.8" stroke="black"/>
<path d="M1660.41 730.864L1271.51 730.864C1271.52 730.715 1271.53 730.534 1271.55 730.323C1271.6 729.614 1271.69 728.562 1271.81 727.188C1272.06 724.441 1272.47 720.41 1273.12 715.278C1274.43 705.014 1276.72 690.348 1280.6 672.747C1288.38 637.543 1302.59 590.611 1328.28 543.684C1379.62 449.938 1476.83 356.194 1660.45 356.024L1660.41 730.864Z" fill="#BFB5B6" fill-opacity="0.8" stroke="black"/>
<path d="M618.733 1379.87C446.226 1379.87 280.721 1311.69 158.339 1190.19C36.0761 1068.81 -33.2309 904.071 -34.4965 731.864L1271.92 731.864C1270.71 904.081 1201.43 1068.85 1079.16 1190.23C956.775 1311.74 791.249 1379.92 618.733 1379.87L618.733 1380.37L618.733 1379.87Z" fill="#BFB5B6" fill-opacity="0.8" stroke="black"/>
<path d="M618.692 83.4364C791.198 83.4327 956.703 151.62 1079.09 273.118C1201.35 394.497 1270.66 559.236 1271.92 731.442L-34.4967 731.442C-33.2851 559.226 35.999 394.462 158.265 273.072C280.65 151.564 446.175 83.3894 618.692 83.4364Z" fill="#BFB5B6" fill-opacity="0.8" stroke="black"/>
<path d="M2598.13 730.864C2598.33 718.001 2603.56 705.718 2612.7 696.642C2621.96 687.447 2634.49 682.292 2647.54 682.303L2647.54 681.803L2647.54 682.303C2660.6 682.303 2673.12 687.461 2682.38 696.654C2691.52 705.727 2696.75 718.004 2696.96 730.864L2598.13 730.864Z" fill="#BFB5B6" fill-opacity="0.8" stroke="black"/>
<path d="M2682.37 766.063C2673.11 775.253 2660.59 780.415 2647.54 780.426C2634.49 780.426 2621.97 775.267 2612.71 766.075C2603.57 757.001 2598.34 744.724 2598.13 731.864L2696.96 731.864C2696.74 744.721 2691.5 756.991 2682.37 766.063Z" fill="#BFB5B6" fill-opacity="0.8" stroke="black"/>
<path d="M2527.87 1081.92C2528.5 1058.49 2550.21 1039.48 2577.29 1039.48C2604.36 1039.48 2626.19 1058.49 2626.7 1081.92L2527.87 1081.92Z" fill="#BFB5B6" fill-opacity="0.8" stroke="black"/>
<path d="M2817.6 1082.92C2816.97 1128.45 2774.64 1165.19 2722.35 1165.19C2669.98 1165.19 2627.69 1128.37 2627.06 1082.92L2817.6 1082.92Z" fill="#BFB5B6" fill-opacity="0.8" stroke="black"/>
<path d="M1480.6 1292.27C1480.6 1244.39 1499.56 1198.45 1533.35 1164.49C1567.02 1130.65 1612.68 1111.46 1660.41 1111.05L1660.41 1473.5C1612.68 1473.09 1567.02 1453.9 1533.35 1420.06C1499.56 1386.1 1480.6 1340.16 1480.6 1292.27Z" fill="#BFB5B6" fill-opacity="0.8" stroke="black"/>
<path d="M1788.47 1420.06C1754.81 1453.9 1709.15 1473.09 1661.41 1473.5L1661.41 1110.76C1709.2 1111.17 1754.9 1130.41 1788.58 1164.31C1822.37 1198.32 1841.3 1244.34 1841.22 1292.27L1841.72 1292.28L1841.22 1292.28C1841.22 1340.16 1822.26 1386.1 1788.47 1420.06Z" fill="#BFB5B6" fill-opacity="0.8" stroke="black"/>
<path d="M2152.72 1262.57L2152.72 1262.57C2104.81 1262.58 2058.84 1243.63 2024.87 1209.87C1991.01 1176.24 1971.79 1130.62 1971.38 1082.92L2334.35 1082.92C2333.94 1130.67 2314.68 1176.33 2280.76 1209.98C2246.72 1243.74 2200.68 1262.65 2152.72 1262.57Z" fill="#BFB5B6" fill-opacity="0.8" stroke="black"/>
<path d="M2152.72 902.231C2200.64 902.231 2246.61 921.183 2280.59 954.947C2314.45 988.592 2333.66 1034.22 2334.06 1081.92L1971.25 1081.92C1971.66 1034.2 1990.88 988.552 2024.77 954.903C2058.78 921.136 2104.78 902.198 2152.72 902.231L2152.72 901.731L2152.72 902.231Z" fill="#BFB5B6" fill-opacity="0.8" stroke="black"/>
<path d="M2367.58 410.238C2383.9 393.829 2405.99 384.47 2429.12 384.155L2429.12 560.74C2405.97 560.436 2383.86 551.069 2367.54 534.64C2351.11 518.092 2341.88 495.722 2341.88 472.407C2341.92 449.109 2351.15 426.766 2367.58 410.238Z" fill="#BFB5B6" fill-opacity="0.8" stroke="black"/>
<path d="M2399.2 913.16C2407.14 905.189 2417.88 900.625 2429.12 900.42L2429.12 986.925C2417.86 986.72 2407.1 982.139 2399.16 974.142C2391.09 966.026 2386.56 955.051 2386.56 943.611C2386.59 932.193 2391.13 921.249 2399.2 913.16Z" fill="#BFB5B6" fill-opacity="0.8" stroke="black"/>
<path d="M2460.08 974.142C2452.14 982.139 2441.38 986.72 2430.12 986.925L2430.12 900.42C2441.36 900.625 2452.1 905.189 2460.04 913.16C2468.11 921.249 2472.65 932.193 2472.68 943.612C2472.68 955.051 2468.15 966.026 2460.08 974.142Z" fill="#BFB5B6" fill-opacity="0.8" stroke="black"/>
<path d="M2399.2 1189.88C2407.14 1181.91 2417.88 1177.34 2429.12 1177.14L2429.12 1263.64C2417.86 1263.44 2407.1 1258.86 2399.16 1250.86C2391.09 1242.74 2386.56 1231.77 2386.56 1220.33C2386.59 1208.91 2391.13 1197.97 2399.2 1189.88Z" fill="#BFB5B6" fill-opacity="0.8" stroke="black"/>
<path d="M2491.77 534.671C2475.42 551.101 2453.29 560.458 2430.12 560.74L2430.12 384.155C2453.27 384.437 2475.4 393.782 2491.74 410.195C2508.2 426.726 2517.45 449.088 2517.48 472.407C2517.47 495.74 2508.23 518.122 2491.77 534.671Z" fill="#BFB5B6" fill-opacity="0.8" stroke="black"/>
<path d="M1788.47 300.797C1754.81 334.635 1709.15 353.833 1661.41 354.236L1661.41 -8.49634C1709.2 -8.09284 1754.9 11.1445 1788.58 45.0447C1822.37 79.0639 1841.3 125.078 1841.22 173.013L1841.72 173.014L1841.22 173.014C1841.22 220.9 1822.26 266.84 1788.47 300.797Z" fill="#BFB5B6" fill-opacity="0.8" stroke="black"/>
<path d="M1479.57 173.014C1479.57 125.128 1498.53 79.1885 1532.32 45.2316C1565.98 11.3935 1611.64 -7.80414 1659.38 -8.20731L1659.38 354.236C1611.64 353.833 1565.98 334.635 1532.32 300.797C1498.53 266.84 1479.57 220.9 1479.57 173.014Z" fill="#BFB5B6" fill-opacity="0.8" stroke="black"/>
<path d="M2083.83 802.452C2064.62 783.383 2053.69 757.541 2053.37 730.501L2259.67 730.501C2259.36 757.544 2248.44 783.392 2229.23 802.464C2209.9 821.654 2183.77 832.424 2156.52 832.424C2129.28 832.413 2103.15 821.64 2083.83 802.452Z" fill="#BFB5B6" fill-opacity="0.8" stroke="black"/>
<path d="M2156.69 628.116C2183.84 628.115 2209.9 638.851 2229.16 657.979C2248.31 676.988 2259.2 702.753 2259.5 729.708L2053.87 729.708C2054.17 702.753 2065.07 676.988 2084.21 657.979C2103.48 638.851 2129.53 628.115 2156.69 628.116Z" fill="#BFB5B6" fill-opacity="0.8" stroke="black"/>
</svg>

<?xml version="1.0" encoding="utf-8"?>
<!-- Generator: Adobe Illustrator 25.4.1, SVG Export Plug-In . SVG Version: 6.00 Build 0)  -->
<svg version="1.1" id="Layer_1" xmlns="http://www.w3.org/2000/svg" xmlns:xlink="http://www.w3.org/1999/xlink" x="0px" y="0px"
	 viewBox="0 0 3157 1474" style="enable-background:new 0 0 3157 1474;" xml:space="preserve">
<style type="text/css">
	.st0{fill:#E7E0CF;fill-opacity:0.8;stroke:#000000;}
</style>
<path class="st0" d="M2050.3,730.3c0,0.2,0,0.4,0,0.5h-388.9V356c183.6,0.2,280.8,93.9,332.2,187.7c25.7,46.9,39.9,93.9,47.7,129.1
	c3.9,17.6,6.2,32.3,7.5,42.5c0.7,5.1,1.1,9.2,1.3,11.9C2050.2,728.6,2050.3,729.6,2050.3,730.3z"/>
<path class="st0" d="M1661.4,731.9h388.9c0,0.1,0,0.3,0,0.5c-0.1,0.7-0.1,1.8-0.2,3.1c-0.2,2.7-0.7,6.8-1.3,11.9
	c-1.3,10.3-3.6,24.9-7.5,42.5c-7.8,35.2-22,82.1-47.7,129.1c-51.3,93.7-148.5,187.5-332.2,187.7V731.9z"/>
<path class="st0" d="M2260.8,731.9c-0.1-0.6-0.1-1-0.1-1.4h168.4v168.3c-79.5-0.2-121.5-42.3-143.8-84.4
	c-11.2-21.1-17.3-42.2-20.7-58.1c-1.7-7.9-2.7-14.5-3.2-19.1C2261.1,734.9,2260.9,733.1,2260.8,731.9z"/>
<path class="st0" d="M2427.8,561.5c0.6-0.1,1-0.1,1.4-0.1v168.3h-168.5c0.2-79.4,42.3-121.5,84.5-143.7
	c21.1-11.1,42.3-17.3,58.1-20.7c7.9-1.7,14.5-2.7,19.1-3.2C2424.7,561.8,2426.5,561.6,2427.8,561.5z"/>
<path class="st0" d="M2431.5,900.1c-0.6,0.1-1,0.1-1.4,0.1V731.9h168.4c-0.2,79.4-42.3,121.5-84.5,143.7
	c-21.1,11.1-42.3,17.3-58.1,20.7c-7.9,1.7-14.5,2.7-19.1,3.2C2434.5,899.8,2432.7,899.9,2431.5,900.1z"/>
<path class="st0" d="M3156.4,1080.6c0,0.6,0.1,1,0.1,1.4h-168.4V913.6c79.5,0.2,121.6,42.3,143.8,84.4
	c11.2,21.1,17.3,42.2,20.7,58.1c1.7,7.9,2.7,14.5,3.2,19.1C3156.1,1077.5,3156.2,1079.3,3156.4,1080.6z"/>
<path class="st0" d="M2985.7,913.7c0.6-0.1,1.1-0.1,1.4-0.1v168.3h-168.4c0.2-79.4,42.3-121.5,84.4-143.7
	c21.1-11.1,42.3-17.3,58.1-20.7c7.9-1.7,14.5-2.7,19.2-3.2C2982.6,914,2984.5,913.8,2985.7,913.7z"/>
<path class="st0" d="M2818.8,1084.3c-0.1-0.6-0.1-1-0.1-1.4h168.4v168.3c-79.5-0.2-121.5-42.3-143.8-84.4
	c-11.1-21.1-17.3-42.2-20.7-58.1c-1.7-7.9-2.7-14.5-3.2-19.1C2819,1087.3,2818.9,1085.5,2818.8,1084.3z"/>
<path class="st0" d="M2524.1,1081.4c0,0.2,0,0.4,0,0.5h-94v-94c44.3,0.2,67.8,23.7,80.2,47.2c6.2,11.8,9.7,23.7,11.6,32.5
	c0.9,4.4,1.5,8.1,1.8,10.7C2523.9,1079.7,2524,1080.7,2524.1,1081.4z"/>
<path class="st0" d="M2335.1,1083.4c0-0.2,0-0.4,0-0.5h94v94c-44.3-0.2-67.8-23.7-80.2-47.2c-6.2-11.8-9.7-23.6-11.6-32.5
	c-0.9-4.4-1.5-8.1-1.8-10.7C2335.3,1085.2,2335.2,1084.1,2335.1,1083.4z"/>
<path class="st0" d="M2430.6,1176.8c-0.2,0-0.4,0-0.5,0v-94h94c-0.2,44.3-23.7,67.8-47.3,80.2c-11.8,6.2-23.7,9.7-32.5,11.6
	c-4.4,0.9-8.1,1.5-10.7,1.8C2432.4,1176.7,2431.3,1176.8,2430.6,1176.8z"/>
<path class="st0" d="M1660.4,730.9h-388.9c0-0.1,0-0.3,0-0.5c0-0.7,0.1-1.8,0.3-3.1c0.2-2.7,0.7-6.8,1.3-11.9
	c1.3-10.3,3.6-24.9,7.5-42.5c7.8-35.2,22-82.1,47.7-129.1c51.3-93.7,148.5-187.5,332.2-187.7L1660.4,730.9z"/>
<path class="st0" d="M618.7,1379.9c-172.5,0-338-68.2-460.4-189.7C36.1,1068.8-33.2,904.1-34.5,731.9h1306.4
	c-1.2,172.2-70.5,337-192.8,458.4C956.8,1311.7,791.2,1379.9,618.7,1379.9v0.5V1379.9z"/>
<path class="st0" d="M618.7,83.4c172.5,0,338,68.2,460.4,189.7c122.3,121.4,191.6,286.1,192.8,458.3H-34.5
	c1.2-172.2,70.5-337,192.8-458.4C280.6,151.6,446.2,83.4,618.7,83.4z"/>
<path class="st0" d="M2598.1,730.9c0.2-12.9,5.4-25.1,14.6-34.2c9.3-9.2,21.8-14.4,34.8-14.3v-0.5v0.5c13.1,0,25.6,5.2,34.8,14.4
	c9.1,9.1,14.4,21.4,14.6,34.2H2598.1z"/>
<path class="st0" d="M2682.4,766.1c-9.3,9.2-21.8,14.4-34.8,14.4c-13.1,0-25.6-5.2-34.8-14.4c-9.1-9.1-14.4-21.4-14.6-34.2h98.8
	C2696.7,744.7,2691.5,757,2682.4,766.1z"/>
<path class="st0" d="M2527.9,1081.9c0.6-23.4,22.3-42.4,49.4-42.4c27.1,0,48.9,19,49.4,42.4H2527.9z"/>
<path class="st0" d="M2817.6,1082.9c-0.6,45.5-43,82.3-95.2,82.3c-52.4,0-94.7-36.8-95.3-82.3H2817.6z"/>
<path class="st0" d="M1480.6,1292.3c0-47.9,19-93.8,52.8-127.8c33.7-33.8,79.3-53,127.1-53.4v362.4c-47.7-0.4-93.4-19.6-127.1-53.4
	C1499.6,1386.1,1480.6,1340.2,1480.6,1292.3z"/>
<path class="st0" d="M1788.5,1420.1c-33.7,33.8-79.3,53-127.1,53.4v-362.7c47.8,0.4,93.5,19.7,127.2,53.6c33.8,34,52.7,80,52.6,128
	l0.5,0h-0.5C1841.2,1340.2,1822.3,1386.1,1788.5,1420.1z"/>
<path class="st0" d="M2152.7,1262.6L2152.7,1262.6c-47.9,0-93.9-18.9-127.8-52.7c-33.9-33.6-53.1-79.2-53.5-126.9h363
	c-0.4,47.8-19.7,93.4-53.6,127.1C2246.7,1243.7,2200.7,1262.7,2152.7,1262.6z"/>
<path class="st0" d="M2152.7,902.2c47.9,0,93.9,19,127.9,52.7c33.9,33.6,53.1,79.3,53.5,127h-362.8c0.4-47.7,19.6-93.4,53.5-127
	C2058.8,921.1,2104.8,902.2,2152.7,902.2v-0.5V902.2z"/>
<path class="st0" d="M2367.6,410.2c16.3-16.4,38.4-25.8,61.5-26.1v176.6c-23.2-0.3-45.3-9.7-61.6-26.1
	c-16.4-16.5-25.7-38.9-25.7-62.2C2341.9,449.1,2351.1,426.8,2367.6,410.2z"/>
<path class="st0" d="M2399.2,913.2c7.9-8,18.7-12.5,29.9-12.7v86.5c-11.3-0.2-22-4.8-30-12.8c-8.1-8.1-12.6-19.1-12.6-30.5
	C2386.6,932.2,2391.1,921.2,2399.2,913.2z"/>
<path class="st0" d="M2460.1,974.1c-7.9,8-18.7,12.6-30,12.8v-86.5c11.2,0.2,22,4.8,29.9,12.7c8.1,8.1,12.6,19,12.6,30.5
	C2472.7,955.1,2468.1,966,2460.1,974.1z"/>
<path class="st0" d="M2399.2,1189.9c7.9-8,18.7-12.5,29.9-12.7v86.5c-11.3-0.2-22-4.8-30-12.8c-8.1-8.1-12.6-19.1-12.6-30.5
	C2386.6,1208.9,2391.1,1198,2399.2,1189.9z"/>
<path class="st0" d="M2491.8,534.7c-16.4,16.4-38.5,25.8-61.6,26.1V384.2c23.1,0.3,45.3,9.6,61.6,26c16.5,16.5,25.7,38.9,25.7,62.2
	C2517.5,495.7,2508.2,518.1,2491.8,534.7z"/>
<path class="st0" d="M1788.5,300.8c-33.7,33.8-79.3,53-127.1,53.4V-8.5c47.8,0.4,93.5,19.6,127.2,53.5c33.8,34,52.7,80,52.6,128
	l0.5,0h-0.5C1841.2,220.9,1822.3,266.8,1788.5,300.8z"/>
<path class="st0" d="M1479.6,173c0-47.9,19-93.8,52.8-127.8c33.7-33.8,79.3-53,127.1-53.4v362.4c-47.7-0.4-93.4-19.6-127.1-53.4
	C1498.5,266.8,1479.6,220.9,1479.6,173z"/>
<path class="st0" d="M2083.8,802.5c-19.2-19.1-30.1-44.9-30.5-72h206.3c-0.3,27-11.2,52.9-30.4,72c-19.3,19.2-45.5,30-72.7,30
	C2129.3,832.4,2103.1,821.6,2083.8,802.5z"/>
<path class="st0" d="M2156.7,628.1c27.2,0,53.2,10.7,72.5,29.9c19.2,19,30,44.8,30.3,71.7h-205.6c0.3-27,11.2-52.7,30.3-71.7
	C2103.5,638.9,2129.5,628.1,2156.7,628.1z"/>
</svg>
